icons/sub-notebook.svg

<svg width="24" height="24" viewBox="0 0 24 24" fill="none" xmlns="http://www.w3.org/2000/svg">
<path fill-rule="evenodd" clip-rule="evenodd" d="M8 2C5.79086 2 4 3.79086 4 6V18.5C4 18.5623 4.0057 18.6233 4.01661 18.6825C4.00563 18.7868 4 18.8927 4 19C4 20.6569 5.34315 22 7 22H19C19.5523 22 20 21.5523 20 21C20 20.4477 19.5523 20 19 20H7C6.44772 20 6 19.5523 6 19C6 18.4477 6.44772 18 7 18H19C19.5523 18 20 17.5523 20 17V3C20 2.44772 19.5523 2 19 2H8ZM18 16V4H8C6.89543 4 6 4.89543 6 6V16.1707C6.31278 16.0602 6.64936 16 7 16H18Z" fill="#9AA1B4"/>
</svg>

<?xml version="1.0" encoding="utf-8"?>
<!-- Generator: Adobe Illustrator 22.1.0, SVG Export Plug-In . SVG Version: 6.00 Build 0)  -->
<svg version="1.1" id="Layer_1" xmlns="http://www.w3.org/2000/svg" xmlns:xlink="http://www.w3.org/1999/xlink" x="0px" y="0px"
	 viewBox="0 0 24 24" style="enable-background:new 0 0 24 24;" xml:space="preserve">
<style type="text/css">
	.st0{fill:#9AA1B4;}
</style>
<path class="st0" d="M7,18h12c0.6,0,1-0.4,1-1V3c0-0.6-0.4-1-1-1H8C5.8,2,4,3.8,4,6v12.5c0,0.1,0,0.1,0,0.2c0,0.1,0,0.2,0,0.3
	c0,1.7,1.3,3,3,3h12c0.6,0,1-0.4,1-1s-0.4-1-1-1H7c-0.6,0-1-0.4-1-1S6.4,18,7,18z M6,6c0-1.1,0.9-2,2-2h10v12H7
	c-0.4,0-0.7,0.1-1,0.2V6z"/>
</svg>
